X: 24290
T: Lost In The Loop
R: reel
M: 4/4
K: Cmajor
"C"CDEF "Dm"DA,A,F|"Em"EFGA "F"FDD^F|"G"GABc dcBc|"G"dDcD BAGA,|
"C"CDEF "Dm"DA,A,F|"Em"EFGA "F"FDD^F|"G"GABc d2GF|"G"1 DA,CD "Am"FD D/D/D:|"G"2 DA,CD "Am"FDDA||
"Dm"dDDc "G"BGG2|"Dm"ADDF "C"ECCD|"Dm"dDcD "G"BAGA,|"G"CDEF "Am"DA,A,A|
"Dm"dDDc "G"BGG2|"Dm"ADDF "C"ECCE|"G"GABc d2GF|"G"DA,CD FDDA:|
"Dm"d2d2 gadc|"Dm"d2dc AGAc|"G"dGGd GGdD|"G"CDEF DA,A,A|
"Dm"d2d2 gadc|"Dm"d2dc AGAc|"G"decA GABc|"Am"dDcD "G"A,G G/G/G:|

